assetsMobile/image/woman.svg

<?xml version="1.0" encoding="UTF-8"?>
<svg xmlns="http://www.w3.org/2000/svg" xmlns:xlink="http://www.w3.org/1999/xlink" width="22px" height="20px" viewBox="0 0 22 20" version="1.1">
<g id="surface1">
<path style=" stroke:none;fill-rule:nonzero;fill:rgb(98.039216%,97.254902%,96.862745%);fill-opacity:1;" d="M 1.199219 20 L 20.800781 20 C 21.398438 20 22 19.601562 22 19.199219 L 22 17.199219 C 22 17 21.800781 16.898438 21.601562 16.898438 C 21.398438 16.898438 21.199219 17 21.199219 17.199219 L 21.199219 19.199219 C 21.199219 19.300781 21.101562 19.398438 20.898438 19.398438 L 18.601562 19.398438 L 18.601562 14.300781 C 18.601562 14.101562 18.398438 14 18.199219 14 C 18 14 17.800781 14.101562 17.800781 14.300781 L 17.800781 19.398438 L 11.5 19.398438 L 11.5 17.601562 L 14.800781 15.601562 C 15 15.398438 15.101562 15.199219 15.101562 15 L 14.800781 14.300781 L 16.101562 13.800781 C 16.398438 13.699219 16.601562 13.398438 16.5 13.199219 L 16 11.699219 C 16.398438 11.800781 18.800781 12.398438 19.199219 12.5 C 20.199219 12.800781 21.199219 13.601562 21.199219 14.601562 L 21.199219 15.800781 C 21.199219 16 21.398438 16.101562 21.601562 16.101562 C 21.800781 16.101562 22 16 22 15.898438 L 22 14.699219 C 22 13.601562 21 12.5 19.5 12.101562 C 19.398438 12.101562 18.800781 11.898438 18.101562 11.699219 C 18.5 11.398438 18.601562 11 18.601562 10.601562 C 18.601562 10.398438 18.699219 10.300781 18.800781 10.101562 C 20 9.300781 20 8 18.800781 7.199219 C 18.5 7 18.601562 6.699219 18.601562 6.601562 C 18.601562 6 18.199219 5.5 17.5 5.199219 C 17.199219 5.101562 17.101562 4.898438 17.101562 4.699219 L 17.101562 4.199219 C 17.101562 0.5 10.601562 -1.398438 6.800781 1.199219 C 5.601562 2 5 3 5 4.101562 L 5 4.601562 C 5 4.898438 4.800781 5 4.601562 5.199219 C 3.800781 5.5 3.398438 6.101562 3.5 6.699219 C 3.5 6.898438 3.398438 7.101562 3.199219 7.199219 C 2.699219 7.5 2.300781 8 2.300781 8.601562 C 2.300781 9.199219 2.601562 9.699219 3.199219 10.101562 C 3.398438 10.199219 3.5 10.398438 3.398438 10.601562 C 3.398438 11 3.5 11.398438 3.898438 11.699219 C 3.199219 11.898438 2.601562 12 2.601562 12 C 1.300781 12.398438 0 13.300781 0 14.699219 L 0 19.300781 C 0 19.699219 0.601562 20 1.199219 20 Z M 11 16.5 C 9.5 13.300781 10.101562 14.699219 9.199219 12.699219 C 9.398438 12.800781 9.699219 12.800781 9.898438 12.898438 C 10.101562 12.898438 10.398438 12.800781 10.398438 12.699219 C 10.5 12.5 10.300781 12.398438 10.101562 12.300781 C 9.601562 12.199219 9.199219 12.101562 8.800781 11.898438 L 8.398438 11.101562 C 9 11 9.199219 10.800781 9.199219 10.5 L 9.199219 10.101562 C 10.300781 10.398438 11.699219 10.5 12.898438 10.101562 L 12.898438 10.5 C 12.898438 10.699219 13.101562 10.898438 13.398438 11 L 13.601562 11.101562 L 13.199219 11.898438 C 12.800781 12.101562 12.398438 12.199219 11.898438 12.300781 C 11.699219 12.300781 11.5 12.5 11.601562 12.699219 C 11.699219 12.898438 11.898438 13 12.101562 12.898438 C 12.300781 12.898438 12.601562 12.800781 12.800781 12.699219 C 12 14.601562 12.5 13.5 11 16.5 Z M 7.800781 13.699219 L 6.5 13.199219 L 7.101562 11.398438 C 7.199219 11.398438 7.601562 11.300781 7.699219 11.199219 C 7.800781 11.398438 10.101562 16.199219 10.199219 16.398438 L 7.898438 15 L 8.199219 14.300781 C 8.300781 14.199219 8.101562 13.898438 7.800781 13.699219 Z M 7.398438 7.300781 C 7.398438 6.800781 7.800781 6.398438 8.398438 6.199219 C 10.101562 5.601562 11.699219 4.5 12.199219 3.300781 C 12.898438 4.199219 13.601562 4.800781 14 5.101562 C 14.398438 5.398438 14.601562 5.601562 14.601562 6.101562 L 14.601562 7.398438 C 14.601562 8.800781 13 9.898438 11 9.898438 C 8.898438 9.800781 7.398438 8.601562 7.398438 7.300781 Z M 15.601562 13.300781 L 14.300781 13.800781 C 13.898438 13.898438 13.800781 14.199219 13.898438 14.5 L 14.199219 15.199219 L 11.898438 16.601562 C 12 16.398438 14.300781 11.601562 14.398438 11.398438 L 15 11.601562 Z M 3.800781 9.601562 C 3.398438 9.398438 3.199219 9 3.199219 8.601562 C 3.199219 8.199219 3.398438 7.800781 3.800781 7.601562 C 4.199219 7.300781 4.398438 7 4.300781 6.601562 C 4.300781 6.199219 4.5 5.800781 5 5.601562 C 5.5 5.398438 5.800781 5 5.800781 4.601562 L 5.800781 4.101562 C 5.800781 2.101562 8.101562 0.601562 11 0.601562 C 13.898438 0.601562 16.199219 2.199219 16.199219 4.199219 L 16.199219 4.699219 C 16.199219 5.101562 16.5 5.5 17 5.699219 C 17.5 5.898438 17.800781 6.300781 17.699219 6.699219 C 17.699219 7.101562 17.898438 7.398438 18.199219 7.601562 C 19 8.199219 19 9.101562 18.199219 9.699219 C 17.800781 9.898438 17.699219 10.300781 17.699219 10.601562 C 17.699219 10.898438 17.5 11.199219 17.199219 11.5 C 16.398438 11.300781 14.5 10.800781 13.699219 10.601562 L 13.699219 9.699219 C 14.800781 9.101562 15.5 8.199219 15.5 7.300781 L 15.5 6 C 15.5 5.5 15.199219 5 14.699219 4.699219 C 14 4.199219 13.300781 3.5 12.800781 2.699219 C 12.5 2.199219 11.5 2.300781 11.398438 2.800781 C 11.300781 3.699219 10.199219 4.800781 8 5.699219 C 7.101562 6 6.5 6.601562 6.5 7.300781 C 6.5 8.300781 7.199219 9.199219 8.300781 9.699219 L 8.300781 10.5 C 8.300781 10.5 4.800781 11.398438 4.800781 11.398438 C 4.5 11.199219 4.300781 10.898438 4.300781 10.5 C 4.398438 10.199219 4.199219 9.898438 3.800781 9.601562 Z M 0.898438 14.699219 C 0.898438 13.601562 2.101562 12.800781 2.898438 12.601562 C 3 12.601562 4.601562 12.101562 6.101562 11.699219 L 5.601562 13.101562 C 5.5 13.398438 5.699219 13.601562 6 13.699219 L 7.300781 14.199219 L 7.101562 15 C 7 15.199219 7.101562 15.5 7.398438 15.601562 L 10.699219 17.601562 L 10.699219 19.398438 L 4.398438 19.398438 L 4.398438 14.300781 C 4.398438 14.101562 4.199219 14 4 14 C 3.800781 14 3.601562 14.101562 3.601562 14.300781 L 3.601562 19.398438 L 1.199219 19.398438 C 1 19.398438 0.898438 19.300781 0.898438 19.199219 Z M 0.898438 14.699219 "/>
</g>
</svg>

<?xml version="1.0" encoding="utf-8"?>
<!-- Generator: Adobe Illustrator 24.0.2, SVG Export Plug-In . SVG Version: 6.00 Build 0)  -->
<svg version="1.1" id="Layer_1" xmlns="http://www.w3.org/2000/svg" xmlns:xlink="http://www.w3.org/1999/xlink" x="0px" y="0px"
	 viewBox="0 0 22 20" style="enable-background:new 0 0 22 20;" xml:space="preserve">
<style type="text/css">
	.st0{fill:#FAF8F7;}
</style>
<g>
	<path class="st0" d="M1.2,20h19.6c0.6,0,1.2-0.4,1.2-0.8v-2c0-0.2-0.2-0.3-0.4-0.3s-0.4,0.1-0.4,0.3v2c0,0.1-0.1,0.2-0.3,0.2h-2.3
		v-5.1c0-0.2-0.2-0.3-0.4-0.3s-0.4,0.1-0.4,0.3v5.1h-6.3v-1.8l3.3-2c0.2-0.2,0.3-0.4,0.3-0.6l-0.3-0.7c0,0,0,0,0,0l1.3-0.5
		c0.3-0.1,0.5-0.4,0.4-0.6L16,11.7c0.4,0.1,2.8,0.7,3.2,0.8c1,0.3,2,1.1,2,2.1v1.2c0,0.2,0.2,0.3,0.4,0.3S22,16,22,15.9v-1.2
		c0-1.1-1-2.2-2.5-2.6c0,0,0,0,0,0c-0.1,0-0.7-0.2-1.4-0.4c0.4-0.3,0.5-0.7,0.5-1.1c0-0.2,0.1-0.3,0.2-0.5c1.2-0.8,1.2-2.1,0-2.9
		c-0.3-0.2-0.2-0.5-0.2-0.6c0-0.6-0.4-1.1-1.1-1.4c-0.3-0.1-0.4-0.3-0.4-0.5V4.2c0-3.7-6.5-5.6-10.3-3C5.6,2,5,3,5,4.1v0.5
		C5,4.9,4.8,5,4.6,5.2C3.8,5.5,3.4,6.1,3.5,6.7c0,0.2-0.1,0.4-0.3,0.5C2.7,7.5,2.3,8,2.3,8.6c0,0.6,0.3,1.1,0.9,1.5
		c0.2,0.1,0.3,0.3,0.2,0.5c0,0.4,0.1,0.8,0.5,1.1C3.2,11.9,2.6,12,2.6,12c0,0,0,0,0,0C1.3,12.4,0,13.3,0,14.7v4.6
		C0,19.7,0.6,20,1.2,20L1.2,20z M11,16.5c-1.5-3.2-0.9-1.8-1.8-3.8c0.2,0.1,0.5,0.1,0.7,0.2c0.2,0,0.5-0.1,0.5-0.2
		c0.1-0.2-0.1-0.3-0.3-0.4c-0.5-0.1-0.9-0.2-1.3-0.4l-0.4-0.8c0,0,0,0,0,0c0,0,0,0,0,0c0,0,0,0,0,0l0,0C9,11,9.2,10.8,9.2,10.5v-0.4
		c1.1,0.3,2.5,0.4,3.7,0v0.4c0,0.2,0.2,0.4,0.5,0.5l0.2,0.1l-0.4,0.8c-0.4,0.2-0.8,0.3-1.3,0.4c-0.2,0-0.4,0.2-0.3,0.4
		c0.1,0.2,0.3,0.3,0.5,0.2c0.2,0,0.5-0.1,0.7-0.2C12,14.6,12.5,13.5,11,16.5L11,16.5z M7.8,13.7l-1.3-0.5l0,0c0,0,0,0,0,0l0.6-1.8
		c0.1,0,0.5-0.1,0.6-0.2c0.1,0.2,2.4,5,2.5,5.2l-2.3-1.4c0,0,0,0,0,0l0.3-0.7C8.3,14.2,8.1,13.9,7.8,13.7L7.8,13.7z M7.4,7.3
		c0-0.5,0.4-0.9,1-1.1c1.7-0.6,3.3-1.7,3.8-2.9c0.7,0.9,1.4,1.5,1.8,1.8c0.4,0.3,0.6,0.5,0.6,1v1.3c0,1.4-1.6,2.5-3.6,2.5l0,0
		c0,0,0,0,0,0C8.9,9.8,7.4,8.6,7.4,7.3L7.4,7.3z M15.6,13.3l-1.3,0.5c-0.4,0.1-0.5,0.4-0.4,0.7l0.3,0.7c0,0,0,0,0,0l-2.3,1.4
		c0.1-0.2,2.4-5,2.5-5.2l0.6,0.2L15.6,13.3C15.6,13.3,15.6,13.3,15.6,13.3L15.6,13.3z M3.8,9.6C3.4,9.4,3.2,9,3.2,8.6
		c0-0.4,0.2-0.8,0.6-1C4.2,7.3,4.4,7,4.3,6.6c0-0.4,0.2-0.8,0.7-1c0.5-0.2,0.8-0.6,0.8-1V4.1c0-2,2.3-3.5,5.2-3.5
		c2.9,0,5.2,1.6,5.2,3.6v0.5c0,0.4,0.3,0.8,0.8,1c0.5,0.2,0.8,0.6,0.7,1c0,0.4,0.2,0.7,0.5,0.9c0.8,0.6,0.8,1.5,0,2.1
		c-0.4,0.2-0.5,0.6-0.5,0.9c0,0.3-0.2,0.6-0.5,0.9c-0.8-0.2-2.7-0.7-3.5-0.9V9.7c1.1-0.6,1.8-1.5,1.8-2.4V6c0-0.5-0.3-1-0.8-1.3l0,0
		l0,0c-0.7-0.5-1.4-1.2-1.9-2c-0.3-0.5-1.3-0.4-1.4,0.1C11.3,3.7,10.2,4.8,8,5.7C7.1,6,6.5,6.6,6.5,7.3c0,1,0.7,1.9,1.8,2.4v0.8
		c0,0-3.5,0.9-3.5,0.9c-0.3-0.2-0.5-0.5-0.5-0.9l0,0C4.4,10.2,4.2,9.9,3.8,9.6L3.8,9.6z M0.9,14.7c0-1.1,1.2-1.9,2-2.1
		c0.1,0,1.7-0.5,3.2-0.9l-0.5,1.4c-0.1,0.3,0.1,0.5,0.4,0.6l0,0l1.3,0.5c0,0,0,0,0,0L7.1,15c-0.1,0.2,0,0.5,0.3,0.6l3.3,2v1.8H4.4
		v-5.1c0-0.2-0.2-0.3-0.4-0.3s-0.4,0.1-0.4,0.3v5.1H1.2c-0.2,0-0.3-0.1-0.3-0.2L0.9,14.7L0.9,14.7z"/>
</g>
</svg>
